src/collections/integrations/helm-controller/icons/components/bucket/icons/white/bucket-white.svg

<svg id="Layer_1" data-name="Layer 1" xmlns="http://www.w3.org/2000/svg" viewBox="0 0 500 500"><defs><style>.cls-1{fill:#fff;}</style></defs><path class="cls-1" d="M136.52938,121.13478c-.572-.54252-1.19462-1.12636-1.81-1.71761-12.61677-12.12115-22.38092-26.13637-28.279-42.702-1.65073-4.63637-2.89692-9.36515-2.67587-14.35871.021-.4739.01959-.94915.05226-1.42214.445-6.44594,4.75912-9.70322,11.05839-8.17669a27.325,27.325,0,0,1,5.73149,2.19653c6.89022,3.45538,12.5062,8.56359,17.67051,14.16571a112.52651,112.52651,0,0,1,21.722,33.42965,8.29635,8.29635,0,0,0,.38946.861c.07116.12855.22232.21282.55927.51883A176.357,176.357,0,0,1,241.968,79.06864c-.17651-.8761-.28195-1.54571-.44772-2.2a112.49436,112.49436,0,0,1-2.65292-36.95637,84.07478,84.07478,0,0,1,4.44444-21.76378,31.32555,31.32555,0,0,1,5.47651-10.17139,15.687,15.687,0,0,1,3.16336-2.82149,7.026,7.026,0,0,1,8.03255-.056,17.27854,17.27854,0,0,1,5.8402,6.73185A53.05435,53.05435,0,0,1,271.08657,26.508a112.50469,112.50469,0,0,1,2.12263,33.00356,95.59806,95.59806,0,0,1-3.49052,19.91081c7.12171,1.31193,14.20955,2.32869,21.1473,3.97713a186.37909,186.37909,0,0,1,20.44069,6.0033A188.31671,188.31671,0,0,1,331.0769,97.9721c6.34538,3.16433,12.38553,6.94066,18.71757,10.53829.20571-.433.50439-.94982.706-1.50212A108.65959,108.65959,0,0,1,383.40128,60.246a37.75787,37.75787,0,0,1,11.822-6.883,17.24558,17.24558,0,0,1,3.67827-.84512c6.264-.71729,8.89351,3.2244,9.35653,7.93183a29.94372,29.94372,0,0,1-.77381,10.35466A87.90551,87.90551,0,0,1,396.75426,95.492c-6.79016,10.97178-14.85015,20.85494-25.09307,28.83042-.30234.2354-.56784.51814-1.07988.99029a177.77993,177.77993,0,0,1,26.59293,30.88244,10.96227,10.96227,0,0,1-1.689.29762c-10.59546.015-21.1911-.01829-31.78622.04607a4.004,4.004,0,0,1-3.17246-1.69,147.87522,147.87522,0,0,0-88.17776-46.54846,143.35862,143.35862,0,0,0-30.27955-1.16923,146.40735,146.40735,0,0,0-82.53728,31.81054,140.06663,140.06663,0,0,0-16.97616,15.84186,4.72839,4.72839,0,0,1-3.86326,1.75742c-10.12056-.07028-20.24188-.035-30.36293-.03495h-2.15212c.618-2.408,6.84026-10.93786,13.88352-18.55281C125.31349,132.2744,130.87768,126.8839,136.52938,121.13478Z"/><path class="cls-1" d="M394.52934,347.9123a176.63854,176.63854,0,0,1-23.97343,27.16338c.70941.59068,1.28594,1.07041,1.86212,1.55057A108.31456,108.31456,0,0,1,406.10131,424.772a34.61831,34.61831,0,0,1,2.202,14.42026,14.88544,14.88544,0,0,1-.74786,3.69206,7.20762,7.20762,0,0,1-8.15793,5.02308,22.23329,22.23329,0,0,1-6.76276-2.00629,51.23237,51.23237,0,0,1-9.18151-5.8151,107.59183,107.59183,0,0,1-32.936-46.7072c-.18746-.51334-.39218-1.0204-.72243-1.87691a194.65008,194.65008,0,0,1-25.01223,14.00774,181.66925,181.66925,0,0,1-26.6869,9.72442,187.55649,187.55649,0,0,1-28.3045,5.38805c.16807.84015.26446,1.5098.43745,2.15907a109.172,109.172,0,0,1,2.9708,36.44311,80.804,80.804,0,0,1-4.42286,22.4773,78.24971,78.24971,0,0,1-4.16475,8.74473,13.39,13.39,0,0,1-2.33865,2.97083c-3.98009,4.109-8.73225,4.144-12.61157-.07366a27.28012,27.28012,0,0,1-3.907-5.61776c-3.07685-5.77569-4.6604-12.056-5.791-18.46021a116.86329,116.86329,0,0,1-1.35893-26.465,94.4795,94.4795,0,0,1,2.88466-19.18513c.14009-.53269.268-1.0696.37134-1.61034.02629-.13754-.06342-.2973-.17067-.73825a176.12108,176.12108,0,0,1-80.96855-24.99386c-.40992.90921-.76206,1.67473-1.10168,2.44579a110.47729,110.47729,0,0,1-30.90112,41.42041,38.16071,38.16071,0,0,1-12.04706,6.95909,12.08987,12.08987,0,0,1-6.51516.70023,7.11858,7.11858,0,0,1-5.40329-4.4892c-1.41614-3.424-1.16526-6.985-.68438-10.51691a55.45267,55.45267,0,0,1,4.30768-14.25037A112.49985,112.49985,0,0,1,134.88761,380.779c.459-.43461.92981-.857,1.38087-1.29954a3.76029,3.76029,0,0,0,.36534-.65529,178.90466,178.90466,0,0,1-28.469-31.31672c.98458-.08018,1.64327-.18,2.30205-.1806,10.51436-.00976,21.029.02736,31.54284-.04358a4.70554,4.70554,0,0,1,3.70344,1.62615,146.94611,146.94611,0,0,0,39.40276,28.88494,139.94667,139.94667,0,0,0,49.70395,14.77367q70.68048,6.87067,121.59971-42.85452a7.64571,7.64571,0,0,1,5.99261-2.44347c9.80139.12121,19.60512.04986,29.408.04986h2.53353Z"/><path class="cls-1" d="M350.73576,197.76167c2.78711,0,5.47037.18919,8.11487-.0501,2.9951-.271,5.139.8001,7.32354,2.81308,12.61275,11.62214,25.35732,23.10129,38.05863,34.62729.63855.57948,1.29039,1.14432,2.1101,1.8701.76445-.65718,1.48119-1.24318,2.16483-1.8655Q428.14636,217.27914,447.756,199.37a5.44772,5.44772,0,0,1,4.20358-1.64576c3.21888.13038,6.44673.03746,9.8412.03746V303.13036c-1.72309.50368-24.8756.60366-27.63911.0611v-53.362l-.53656-.25427c-9.01079,8.21784-18.0216,16.43564-27.23786,24.8408-9.22584-8.31119-18.34194-16.52347-27.458-24.73577l-.52449.19192c-.023,4.45359-.00774,8.90828-.01046,13.36233q-.00408,6.63942-.00058,13.27882v26.87211h-27.428C350.45161,301.61243,350.21289,203.72342,350.73576,197.76167Z"/><path class="cls-1" d="M97.63436,197.88229h27.26325c.55054,1.75251.65821,102.97139.09469,105.525H97.70468c-.15021-6.70344-.04736-13.38394-.06622-20.06131-.01871-6.62261-.0041-13.24531-.0041-20.03958H63.84679V303.047c-2.05946.61518-25.33374.67417-27.64758.123V197.89436H63.73742v37.18876c1.96793.56844,30.92319.67339,33.872.12942.00818-2.97713.02-6.02646.024-9.0758q.0063-4.7433.00094-9.4866,0-4.625,0-9.25C97.63437,204.32179,97.63436,201.24346,97.63436,197.88229Z"/><path class="cls-1" d="M157.5757,303.3683V198.1946c1.617-.52913,61.545-.73586,65.46219-.20457v22.41432c-.87869.063-1.7857.18341-2.69279.18454q-16.0086.01994-32.01725.00881l-2.96767,0v17.43353H218.7067V261.2229H185.65838c-.55339,1.98509-.70531,15.81681-.25622,19.64583.84488.05679,1.75.16952,2.6553.17059q16.00862.01863,32.01727.00822h2.96945V303.3683Z"/><path class="cls-1" d="M254.28291,303.40855c-.50074-2.82232-.39948-103.60181.09747-105.51735h27.16208v77.76453c1.17173.06084,2.09122.14921,3.01077.15005q16.128.01468,32.2561.00658c.92562,0,1.85125,0,2.90733,0v27.59622Z"/></svg>

<svg width="500" height="500" viewBox="0 0 500 500" fill="none" xmlns="http://www.w3.org/2000/svg">
<path d="M136.529 121.136C135.957 120.593 135.334 120.009 134.719 119.418C122.102 107.297 112.338 93.2817 106.44 76.716C104.789 72.0797 103.543 67.3509 103.764 62.3573C103.785 61.8834 103.783 61.4082 103.816 60.9352C104.261 54.4893 108.575 51.232 114.874 52.7585C116.861 53.2731 118.784 54.0099 120.606 54.955C127.496 58.4104 133.112 63.5186 138.276 69.1208C147.449 78.8823 154.805 90.2031 159.998 102.55C160.112 102.845 160.242 103.132 160.388 103.411C160.459 103.54 160.61 103.624 160.947 103.93C185.532 89.181 213.341 80.6477 241.967 79.0695C241.791 78.1934 241.685 77.5238 241.52 76.8695C238.599 64.782 237.702 52.2939 238.867 39.9131C239.379 32.4939 240.873 25.1755 243.311 18.1494C244.49 14.4487 246.347 10.9996 248.788 7.97797C249.709 6.89869 250.774 5.94953 251.951 5.15648C253.124 4.32728 254.522 3.87737 255.958 3.86736C257.395 3.85735 258.799 4.28771 259.983 5.10048C262.485 6.79514 264.499 9.1163 265.824 11.8323C268.291 16.4387 270.064 21.3842 271.086 26.5089C273.415 37.3454 274.131 48.4667 273.208 59.5124C272.752 66.2541 271.582 72.9283 269.718 79.4232C276.84 80.7352 283.927 81.7519 290.865 83.4004C297.788 85.0101 304.612 87.0145 311.306 89.4037C318.054 91.8804 324.655 94.7416 331.076 97.973C337.422 101.137 343.462 104.914 349.794 108.511C349.999 108.078 350.298 107.561 350.5 107.009C357.095 88.7641 368.456 72.6176 383.4 60.2469C386.889 57.2519 390.896 54.9193 395.222 53.3639C396.414 52.9484 397.647 52.665 398.901 52.5188C405.165 51.8015 407.794 55.7432 408.257 60.4506C408.604 63.9209 408.342 67.4251 407.483 70.8052C405.195 79.5365 401.576 87.8633 396.753 95.4929C389.963 106.465 381.903 116.348 371.66 124.323C371.358 124.559 371.093 124.841 370.581 125.314C380.599 134.554 389.522 144.917 397.173 156.196C396.619 156.339 396.054 156.439 395.484 156.494C384.889 156.509 374.293 156.475 363.698 156.54C363.074 156.525 362.463 156.364 361.912 156.071C361.361 155.777 360.886 155.359 360.526 154.85C337.408 129.593 306.243 113.141 272.348 108.301C262.324 106.843 252.175 106.451 242.068 107.132C211.934 108.972 183.106 120.083 159.531 138.943C153.444 143.744 147.766 149.043 142.555 154.784C142.093 155.358 141.502 155.816 140.832 156.121C140.161 156.426 139.428 156.57 138.692 156.542C128.571 156.472 118.45 156.507 108.329 156.507H106.177C106.795 154.099 113.017 145.569 120.06 137.954C125.313 132.275 130.877 126.885 136.529 121.136Z" fill="white"/>
<path d="M394.529 347.913C387.49 357.766 379.456 366.868 370.555 375.077C371.265 375.668 371.841 376.147 372.417 376.627C387.867 389.266 399.524 405.928 406.101 424.773C407.851 429.369 408.601 434.285 408.303 439.193C408.211 440.451 407.96 441.691 407.555 442.885C407.047 444.577 405.935 446.023 404.431 446.949C402.927 447.875 401.136 448.216 399.397 447.909C397.05 447.604 394.767 446.927 392.634 445.902C389.376 444.295 386.298 442.346 383.453 440.087C368.464 427.772 357.084 411.634 350.517 393.38C350.329 392.867 350.125 392.36 349.794 391.503C341.813 396.781 333.452 401.463 324.782 405.511C316.154 409.444 307.231 412.695 298.095 415.235C288.812 417.754 279.35 419.556 269.791 420.623C269.959 421.463 270.055 422.133 270.228 422.782C273.26 434.677 274.264 446.997 273.199 459.225C272.8 466.89 271.31 474.458 268.776 481.703C267.57 484.701 266.179 487.621 264.611 490.447C263.976 491.543 263.189 492.544 262.273 493.418C258.293 497.527 253.54 497.562 249.661 493.345C248.128 491.643 246.815 489.756 245.754 487.727C242.677 481.951 241.094 475.671 239.963 469.267C238.508 460.525 238.052 451.646 238.604 442.802C238.905 436.325 239.871 429.896 241.489 423.617C241.629 423.084 241.757 422.547 241.86 422.006C241.886 421.869 241.797 421.709 241.689 421.268C213.068 419.65 185.274 411.071 160.721 396.274C160.311 397.183 159.959 397.949 159.619 398.72C152.738 414.775 142.148 428.971 128.718 440.14C125.163 443.179 121.079 445.537 116.671 447.099C114.605 447.928 112.351 448.17 110.156 447.8C108.944 447.583 107.809 447.055 106.862 446.268C105.915 445.481 105.188 444.462 104.753 443.31C103.336 439.886 103.587 436.325 104.068 432.794C104.857 427.871 106.306 423.078 108.376 418.543C114.509 404.259 123.536 391.401 134.887 380.78C135.346 380.346 135.817 379.923 136.268 379.481C136.411 379.275 136.534 379.055 136.633 378.825C125.938 369.55 116.381 359.037 108.164 347.509C109.149 347.428 109.808 347.329 110.466 347.328C120.981 347.318 131.495 347.355 142.009 347.284C142.709 347.263 143.404 347.398 144.045 347.679C144.685 347.961 145.255 348.381 145.713 348.911C157.143 360.67 170.461 370.433 185.115 377.796C200.618 385.773 217.476 390.784 234.819 392.569C281.94 397.15 322.473 382.865 356.419 349.715C357.178 348.894 358.109 348.25 359.144 347.828C360.179 347.405 361.295 347.216 362.412 347.271C372.213 347.392 382.017 347.321 391.82 347.321H394.353L394.529 347.913Z" fill="white"/>
<path d="M350.736 197.763C353.524 197.763 356.207 197.953 358.851 197.713C361.846 197.442 363.99 198.513 366.175 200.526C378.788 212.149 391.532 223.628 404.233 235.154C404.872 235.733 405.524 236.298 406.344 237.024C407.108 236.367 407.825 235.781 408.508 235.158C421.601 223.24 434.684 211.311 447.757 199.372C448.299 198.813 448.955 198.377 449.68 198.093C450.405 197.809 451.183 197.684 451.96 197.726C455.179 197.856 458.407 197.763 461.801 197.763V303.132C460.078 303.636 436.926 303.736 434.162 303.193V249.831L433.626 249.577C424.615 257.795 415.604 266.013 406.388 274.418C397.162 266.107 388.046 257.894 378.93 249.682L378.405 249.874C378.382 254.328 378.398 258.782 378.395 263.236C378.392 267.663 378.392 272.089 378.394 276.515V303.387H350.966C350.452 301.614 350.214 203.725 350.736 197.763Z" fill="white"/>
<path d="M97.6344 197.883H124.898C125.448 199.635 125.556 300.854 124.992 303.408H97.7047C97.5545 296.704 97.6573 290.024 97.6385 283.346C97.6198 276.724 97.6344 270.101 97.6344 263.307H63.8468V303.048C61.7873 303.663 38.5131 303.722 36.1992 303.171V197.895H63.7374V235.084C65.7054 235.652 94.6606 235.757 97.6094 235.213C97.6176 232.236 97.6294 229.187 97.6334 226.137C97.6376 222.975 97.6379 219.813 97.6344 216.651C97.6344 213.567 97.6344 210.484 97.6344 207.401C97.6344 204.322 97.6344 201.244 97.6344 197.883Z" fill="white"/>
<path d="M157.576 303.368V198.194C159.193 197.665 219.121 197.458 223.038 197.99V220.404C222.16 220.467 221.253 220.587 220.346 220.589C209.673 220.602 199.001 220.605 188.328 220.597H185.361V238.031H218.707V261.223H185.659C185.105 263.208 184.954 277.039 185.403 280.868C186.248 280.925 187.153 281.038 188.058 281.039C198.73 281.051 209.403 281.054 220.075 281.047H223.045V303.368H157.576Z" fill="white"/>
<path d="M254.282 303.408C253.781 300.586 253.883 199.806 254.38 197.891H281.542V275.655C282.713 275.716 283.633 275.804 284.553 275.805C295.305 275.815 306.057 275.817 316.809 275.812C317.734 275.812 318.66 275.812 319.716 275.812V303.408L254.282 303.408Z" fill="white"/>
</svg>
